X:255
T:Pride of Rathmore* (reel), The 
B:CRE2.290 (gan ainm)
F:file ID: cre.2/255pride_r
S:Molly (Myers) Murphy (Cork)
L:1/8
M:C
R:reel
Q:180
K:Em
E2ED G2 (3DEF|GEAG FDD2|DEED G2A2|B2Ac BEE2|
E2ED G2 (3DEF|GEAG FDD2|DEED G2A2|(3BcB AC BEE2||
efed Bdef|gfaf gfed|efed Bdef|gfaf e4|
efed Bdef|gfaf gfed|g2gf e2dB|A2GA BEE2||

%%%

